src/assets/kefu.svg

<svg xmlns="http://www.w3.org/2000/svg" width="1280" height="720" xmlns:v="https://vecta.io/nano"><style><![CDATA[.B{fill:#bbdcec}.C{fill:#daedf5}.D{fill:#fff}.E{fill:#95ddd2}]]></style><path d="M0 0v720h1280V0H0z" fill="#192635"/><path d="M101 123v2c-8.087-1.58-18.232 5.397-17.401 14.286.572 6.123 4.773 10.949 8.285 15.714 15.015 20.37 34.86 42.316 44.856 65.711 7.684 17.983 10.53 40.198 13.849 59.369 6.905 39.885 11.024 82.414 8.322 122.92-2.14 32.092-6.181 64.498-12.576 96-2.806 13.823-9.305 35.148-.365 47.941 3.335 4.772 11.587 7.179 17.03 8.581 15.565 4.007 43.031 5.213 56.996-4.224 7.18-4.852 7.166-15.345 14.004-19.298l11.474-80.015L250 382h1c11.718 25.069 32.844 47.487 51.975 67.039 37.27 38.088 81.053 74.758 131.025 94.947 24.41 9.862 45.857 6.366 70-1.653 6.501-2.159 19.483-2.965 21.384-11.051 1.621-6.894-6.193-14.644-10.705-18.756-7.905-7.202-17.468-14.891-27.679-18.425-7.617-2.636-15.523-2.043-23-5.413-12.312-5.549-23.087-14.166-34-21.978-28.141-20.145-54.456-43.458-78.09-68.711-8.584-9.172-27.196-23.997-29.422-37.003-1.962-11.468 16.204-27.574 22.361-35.996 25.598-35.014 62.718-72.127 100.151-94.396 12.079-7.186 25.486-11.995 38-18.36 5.461-2.778 12.108-6.27 12.37-13.244.343-9.099-6.773-18.999-11.798-26-19.328-26.927-51.282-35.8-81.572-20.752-48.245 23.967-84.286 67.605-116.13 109.752-13.175 17.439-30.312 38.908-36.87 60-3.711-12.458-3.036-28.273-4.405-41.289-5.105-48.523-11.162-104.072-54.595-133.192-11.742-7.872-25.662-14.322-39-18.975-17.287-6.03-32.344-4.764-50-5.544m806 171c-17.971.772-36.191 4.066-54 6.576-6.548.923-16.455.525-21.787 4.938-12.334 10.208-11.37 38.75 4.787 44.377 7.017 2.444 15.816.478 23-.467L895 345c-.758 17.646-5.152 35.375-6.83 53-2.785 29.242-2.552 58.748-.167 88.004.631 7.732 1.062 17.245 5.211 23.992 6.218 10.114 21.674 11.728 30.782 4.61 16.753-13.092 14.131-36.534 16.464-55.436 3.282-26.587 8.652-53.074 14.653-79.17 2.98-12.961 4.875-27.674 10.136-39.942 3.13-7.297 18.915-6.347 25.751-6.983 22.89-2.128 72.94-4.387 66.38-39.075-2.31-12.23-11.5-14.051-22.38-13.999-18.38.087-36.607 4.987-55 4.999 8.475-36.966 16.5-94.18 63-98.829 18.04-1.804 31.57 5.57 38.19 22.829 2.95 7.717 3.67 19.828 11.02 24.991 16.2 11.371 43.91-5.108 47.31-21.991 3.85-19.118-3.19-38.395-15.06-53-31.09-38.263-85.4-42.802-129.46-25.935-50.959 19.509-70.727 72.975-80.665 121.935-2.619 12.9-6.288 25.844-7.335 39m-210-30.576c-43.738 5.743-82.339 16.155-115.999 46.746-52.398 47.62-68.029 146.349-12.193 198.099 33.895 31.414 80.272 37.142 124.192 35.326 17.335-.717 35.573-2.745 52-9.056 25.425-9.766 49.699-26.987 60.846-52.539 5.082-11.648 9.233-24.197.636-34.996-9.717-12.207-38.284-20.521-52.478-11.276-14.51 9.449-8.838 28.314-19.113 39.229-7.212 7.661-18.052 11.352-27.891 14.184-27.138 7.813-67.337 8.56-84.892-18.141-2.658-4.043-8.243-14.794-5.896-19.722 1.57-3.295 7.685-4.437 10.788-5.678l31-12.179c31.481-13.422 64.055-24.451 95-39.166 13.942-6.629 30.543-13.471 40.076-26.259 11.994-16.089 9.345-38.705 1.179-55.996-16.992-35.977-58.393-53.678-97.255-48.576z" class="D"/><path d="M616 394c32.846-7.599 67.332-24.021 97-39.782 8.953-4.756 26.333-15.622 19.682-28.203-7.456-14.104-31.438-11.144-43.682-7.011-24.742 8.35-46.455 27.541-60.833 48.996-5.421 8.089-10.836 16.165-12.167 26z" fill="#192635"/><path d="M1056 423v2l37 16v1c-13.91 7.179-25.67 20.034-39 28.565-32.94 21.083-66.994 39.644-103 55.008-142.803 60.933-303.125 73.051-456 58.257-60.017-5.808-119.196-17.194-178-30.254-19.797-4.397-39.349-9.972-59-14.95-6.939-1.758-14.763-5.823-21.942-6.013-4.471-.119-4.87 5.213-6.386 8.387-2.449 5.128-6.655 9.846-11.672 12.583-14.529 7.924-38.195 5.414-54 3.417v1c15.578 3.604 30.641 10.083 46 14.576 39.638 11.594 79.551 22.046 120 30.421 154.36 31.96 315.744 40.55 471 10.002 79.22-15.587 155.268-42.234 227-79.257 26.29-13.57 51.76-29.523 76-46.462 7.36-5.146 14.3-10.672 20.96-16.704 2.35-2.132 4.83-6.177 8.08-6.911 3.94-.89 9.58 3.4 12.96 5.088 9.32 4.661 18.96 10.377 29 13.247l-4.91-72-3.09-40-38 17.753L1056 423z" class="E"/><path d="M1054 470l1 1-1-1m108 6l1 1-1-1m-71 19l1 1-1-1m-14 9l1 1-1-1m-87 3l1 1-1-1m59 14l1 1-1-1m-98 4l1 1-1-1m91 0l1 1-1-1z" class="D"/><path d="M231 532l-11 20c5.639-4.008 12.565-12.544 11-20z" class="C"/><path d="M232 532l1 1-1-1m-1 2v3h1l-1-3m-1 3v3h1l-1-3m-.667 3.667l.334.666-.334-.666m-1 2l.334.666-.334-.666m-1 2l.334.666-.334-.666M226 546l1 1-1-1m-1 1l1 1-1-1m-1 1l1 1-1-1m-1 1l1 1-1-1m-1 1l1 1-1-1z" class="B"/><path d="M151 551l4 3v-1l-4-2z" class="E"/><path d="M152 551l2 2-2-2z" class="B"/><path d="M153 551l1 1-1-1z" class="C"/><path d="M221 551l1 1-1-1z" class="B"/><path d="M991 551l1 1-1-1z" class="D"/><path d="M154 552l1 1-1-1m64 0l1 1-1-1z" class="C"/><path d="M219.667 552.333l.666.334-.666-.334M155 553l1 1-1-1z" class="B"/><path d="M156 553l1 1-1-1m46 3v1l15-3-15 2z" class="C"/><path d="M217.667 553.333l.666.334-.666-.334z" class="B"/><path d="M156 554l1 1-1-1z" class="E"/><path d="M157 554l1 1-1-1z" class="B"/><path d="M158.667 554.333l.666.334-.666-.334z" class="C"/><path d="M215.667 554.333l.666.334-.666-.334z" class="B"/><path d="M158 555l1 1-1-1z" class="D"/><path d="M159 555l1 1-1-1z" class="E"/><path d="M160 555l1 1-1-1z" class="B"/><path d="M161.667 555.333l.666.334-.666-.334z" class="C"/><path d="M212.667 555.333l.666.334-.666-.334z" class="B"/><path d="M161 556l1 1-1-1z" class="D"/><path d="M162 556l1 1-1-1z" class="E"/><path d="M163 556l1 1-1-1z" class="B"/><path d="M164 556v1h4l-4-1z" class="C"/><path d="M208.667 556.333l.666.334-.666-.334m-41 1l.666.334-.666-.334z" class="B"/><path d="M169 557v1h8l-8-1m21 0v1h11l-11-1z" class="C"/><path d="M201 557v1h4l-4-1z" class="B"/><path d="M734 623l1 1-1-1m-257 2l1 1-1-1z" class="D"/></svg>

<?xml version="1.0" standalone="yes"?>
<svg xmlns="http://www.w3.org/2000/svg" width="1280" height="720">
<path style="fill:#192635; stroke:none;" d="M0 0L0 720L1280 720L1280 0L0 0z"/>
<path style="fill:#ffffff; stroke:none;" d="M101 123L101 125C92.913 123.42 82.7681 130.397 83.5988 139.286C84.1711 145.409 88.3723 150.235 91.8843 155C106.899 175.37 126.744 197.316 136.74 220.711C144.424 238.694 147.27 260.909 150.589 280.08C157.494 319.965 161.613 362.494 158.911 403C156.771 435.092 152.73 467.498 146.335 499C143.529 512.823 137.03 534.148 145.97 546.941C149.305 551.713 157.557 554.12 163 555.522C178.565 559.529 206.031 560.735 219.996 551.298C227.176 546.446 227.162 535.953 234 532L245.474 451.985L250 382L251 382C262.718 407.069 283.844 429.487 302.975 449.039C340.245 487.127 384.028 523.797 434 543.986C458.41 553.848 479.857 550.352 504 542.333C510.501 540.174 523.483 539.368 525.384 531.282C527.005 524.388 519.191 516.638 514.679 512.526C506.774 505.324 497.211 497.635 487 494.101C479.383 491.465 471.477 492.058 464 488.688C451.688 483.139 440.913 474.522 430 466.71C401.859 446.565 375.544 423.252 351.91 397.999C343.326 388.827 324.714 374.002 322.488 360.996C320.526 349.528 338.692 333.422 344.849 325C370.447 289.986 407.567 252.873 445 230.604C457.079 223.418 470.486 218.609 483 212.244C488.461 209.466 495.108 205.974 495.37 199C495.713 189.901 488.597 180.001 483.572 173C464.244 146.073 432.29 137.2 402 152.248C353.755 176.215 317.714 219.853 285.87 262C272.695 279.439 255.558 300.908 249 322C245.289 309.542 245.964 293.727 244.595 280.711C239.49 232.188 233.433 176.639 190 147.519C178.258 139.647 164.338 133.197 151 128.544C133.713 122.514 118.656 123.78 101 123M907 294C889.029 294.772 870.809 298.066 853 300.576C846.452 301.499 836.545 301.101 831.213 305.514C818.879 315.722 819.843 344.264 836 349.891C843.017 352.335 851.816 350.369 859 349.424C870.981 347.85 883.026 346.612 895 345C894.242 362.646 889.848 380.375 888.17 398C885.385 427.242 885.618 456.748 888.003 486.004C888.634 493.736 889.065 503.249 893.214 509.996C899.432 520.11 914.888 521.724 923.996 514.606C940.749 501.514 938.127 478.072 940.46 459.17C943.742 432.583 949.112 406.096 955.113 380C958.093 367.039 959.988 352.326 965.249 340.058C968.379 332.761 984.164 333.711 991 333.075C1013.89 330.947 1063.94 328.688 1057.38 294C1055.07 281.77 1045.88 279.949 1035 280.001C1016.62 280.088 998.393 284.988 980 285C988.475 248.034 996.5 190.82 1043 186.171C1061.04 184.367 1074.57 191.741 1081.19 209C1084.14 216.717 1084.86 228.828 1092.21 233.991C1108.41 245.362 1136.12 228.883 1139.52 212C1143.37 192.882 1136.33 173.605 1124.46 159C1093.37 120.737 1039.06 116.198 995 133.065C944.041 152.574 924.273 206.04 914.335 255C911.716 267.9 908.047 280.844 907 294M697 263.424C653.262 269.167 614.661 279.579 581.001 310.17C528.603 357.79 512.972 456.519 568.808 508.269C602.703 539.683 649.08 545.411 693 543.595C710.335 542.878 728.573 540.85 745 534.539C770.425 524.773 794.699 507.552 805.846 482C810.928 470.352 815.079 457.803 806.482 447.004C796.765 434.797 768.198 426.483 754.004 435.728C739.494 445.177 745.166 464.042 734.891 474.957C727.679 482.618 716.839 486.309 707 489.141C679.862 496.954 639.663 497.701 622.108 471C619.45 466.957 613.865 456.206 616.212 451.278C617.782 447.983 623.897 446.841 627 445.6C637.308 441.48 647.788 437.775 658 433.421C689.481 419.999 722.055 408.97 753 394.255C766.942 387.626 783.543 380.784 793.076 367.996C805.07 351.907 802.421 329.291 794.255 312C777.263 276.023 735.862 258.322 697 263.424z"/>
<path style="fill:#192635; stroke:none;" d="M616 394C648.846 386.401 683.332 369.979 713 354.218C721.953 349.462 739.333 338.596 732.682 326.015C725.226 311.911 701.244 314.871 689 319.004C664.258 327.354 642.545 346.545 628.167 368C622.746 376.089 617.331 384.165 616 394z"/>
<path style="fill:#95ddd2; stroke:none;" d="M1056 423L1056 425L1093 441L1093 442C1079.09 449.179 1067.33 462.034 1054 470.565C1021.06 491.648 987.006 510.209 951 525.573C808.197 586.506 647.875 598.624 495 583.83C434.983 578.022 375.804 566.636 317 553.576C297.203 549.179 277.651 543.604 258 538.626C251.061 536.868 243.237 532.803 236.058 532.613C231.587 532.494 231.188 537.826 229.672 541C227.223 546.128 223.017 550.846 218 553.583C203.471 561.507 179.805 558.997 164 557L164 558C179.578 561.604 194.641 568.083 210 572.576C249.638 584.17 289.551 594.622 330 602.997C484.36 634.957 645.744 643.547 801 612.999C880.22 597.412 956.268 570.765 1028 533.742C1054.29 520.172 1079.76 504.219 1104 487.28C1111.36 482.134 1118.3 476.608 1124.96 470.576C1127.31 468.444 1129.79 464.399 1133.04 463.665C1136.98 462.775 1142.62 467.065 1146 468.753C1155.32 473.414 1164.96 479.13 1175 482L1170.09 410L1167 370L1129 387.753L1056 423z"/>
<path style="fill:#ffffff; stroke:none;" d="M1054 470L1055 471L1054 470M1162 476L1163 477L1162 476M1091 495L1092 496L1091 495M1077 504L1078 505L1077 504M990 507L991 508L990 507M1049 521L1050 522L1049 521M951 525L952 526L951 525M1042 525L1043 526L1042 525z"/>
<path style="fill:#daedf5; stroke:none;" d="M231 532L220 552C225.639 547.992 232.565 539.456 231 532z"/>
<path style="fill:#bbdcec; stroke:none;" d="M232 532L233 533L232 532M231 534L231 537L232 537L231 534M230 537L230 540L231 540L230 537M229.333 540.667L229.667 541.333L229.333 540.667M228.333 542.667L228.667 543.333L228.333 542.667M227.333 544.667L227.667 545.333L227.333 544.667M226 546L227 547L226 546M225 547L226 548L225 547M224 548L225 549L224 548M223 549L224 550L223 549M222 550L223 551L222 550z"/>
<path style="fill:#95ddd2; stroke:none;" d="M151 551L155 554L155 553L151 551z"/>
<path style="fill:#bbdcec; stroke:none;" d="M152 551L154 553L152 551z"/>
<path style="fill:#daedf5; stroke:none;" d="M153 551L154 552L153 551z"/>
<path style="fill:#bbdcec; stroke:none;" d="M221 551L222 552L221 551z"/>
<path style="fill:#ffffff; stroke:none;" d="M991 551L992 552L991 551z"/>
<path style="fill:#daedf5; stroke:none;" d="M154 552L155 553L154 552M218 552L219 553L218 552z"/>
<path style="fill:#bbdcec; stroke:none;" d="M219.667 552.333L220.333 552.667L219.667 552.333M155 553L156 554L155 553z"/>
<path style="fill:#daedf5; stroke:none;" d="M156 553L157 554L156 553M202 556L202 557L217 554L202 556z"/>
<path style="fill:#bbdcec; stroke:none;" d="M217.667 553.333L218.333 553.667L217.667 553.333z"/>
<path style="fill:#95ddd2; stroke:none;" d="M156 554L157 555L156 554z"/>
<path style="fill:#bbdcec; stroke:none;" d="M157 554L158 555L157 554z"/>
<path style="fill:#daedf5; stroke:none;" d="M158.667 554.333L159.333 554.667L158.667 554.333z"/>
<path style="fill:#bbdcec; stroke:none;" d="M215.667 554.333L216.333 554.667L215.667 554.333z"/>
<path style="fill:#ffffff; stroke:none;" d="M158 555L159 556L158 555z"/>
<path style="fill:#95ddd2; stroke:none;" d="M159 555L160 556L159 555z"/>
<path style="fill:#bbdcec; stroke:none;" d="M160 555L161 556L160 555z"/>
<path style="fill:#daedf5; stroke:none;" d="M161.667 555.333L162.333 555.667L161.667 555.333z"/>
<path style="fill:#bbdcec; stroke:none;" d="M212.667 555.333L213.333 555.667L212.667 555.333z"/>
<path style="fill:#ffffff; stroke:none;" d="M161 556L162 557L161 556z"/>
<path style="fill:#95ddd2; stroke:none;" d="M162 556L163 557L162 556z"/>
<path style="fill:#bbdcec; stroke:none;" d="M163 556L164 557L163 556z"/>
<path style="fill:#daedf5; stroke:none;" d="M164 556L164 557L168 557L164 556z"/>
<path style="fill:#bbdcec; stroke:none;" d="M208.667 556.333L209.333 556.667L208.667 556.333M167.667 557.333L168.333 557.667L167.667 557.333z"/>
<path style="fill:#daedf5; stroke:none;" d="M169 557L169 558L177 558L169 557M190 557L190 558L201 558L190 557z"/>
<path style="fill:#bbdcec; stroke:none;" d="M201 557L201 558L205 558L201 557z"/>
<path style="fill:#ffffff; stroke:none;" d="M734 623L735 624L734 623M477 625L478 626L477 625z"/>
</svg>
